X: 2
T: Mazurka in C\# Minor, Op. 6, No. 2
C: Frederic Chopin
%%abc-version 2.0
%%abcx-abcm2ps-target-version 5.9.1 (29 Sep 2008)
%%abc-creator hum2abc beta
%%abcx-conversion-date 2021/01/17 12:55:00
%%abc-edited-by Craig Stuart Sapp
%%abcx-initial-encoding-date 2005/01/05/
%%gracespace 0 6 6
%%humdrum-veritas 852477239
%%humdrum-veritas-data 1714008286
%%linebreak <none>
%%barnumbers 0
L: 1/4
M: 3/4
N: Derived from mazurka06-2.krn
Q: "Sotto voce" 3/4=63
%%staves {1 2}
V: 1 clef=treble
V: 2 clef=bass
K: E
[V:1] G!accent!G2 | 
[V:2] ^B,^A,B,/C/ & [G,,D,]!accent![G,,2D,2] | 
[V:1] G!accent!G2 & D/^B,<!accent!C^A,/ | 
[V:2] [G,,D,]!accent![G,,2D,2] | 
[V:1] G!accent!G2 | 
[V:2] (3^B,/C/B,/^A,B,/C/ & [G,,D,]!accent![G,,2D,2] | 
[V:1] GG2 & (3D/F/E/!accent!D2 | 
[V:2] [G,,D,]!accent![G,,2D,2] | 
[V:1] !accent!G!accent!G!accent!G | 
[V:2] (3^B,/C/B,/^A,B,/C/ & [G,,D,][G,,D,][G,,D,] | 
[V:1] GGG & D/^B,/!accent!C/B,/!accent!C/^A,/ | 
[V:2] [G,,D,][G,,D,][G,,D,] | 
[V:1] !accent!GG.[^B,/G/].[C/G/] | 
[V:2] (3^B,/C/B,/^A,z & [G,,D,][G,,D,][G,,D,] | 
[V:1] (3.[D/G/].[F/G/].[E/G/][DG] ]|:  
[V:2] [G,,D,][G,,D,] ]|:  
[V:1] !accent!G [I:setbarnb 9]| 
[V:2] z | 
[V:1] g/z//a//f3/g/ | 
[V:2] ^B,,[G,DF][G,DF] | 
[V:1] e/>g/ce | 
[V:2] C,[G,CE][G,CE] | 
[V:1] g/>a/fg | 
[V:2] ^B,,[G,DF][G,DF] | 
[V:1] (3e/f/g/c3/^^c/ | 
[V:2] C,!accent![G,CE]z | 
[V:1] .d/z//e//c3/d/ | 
[V:2] ^^F,,[D,^A,C][D,A,C] | 
[V:1] ^B/>d/GA | 
[V:2] G,,[D,F,^B,][D,F,B,] | 
[V:1] .G/z//F//DG | 
[V:2] G,,[D,F,^B,][D,F,B,] | 
[V:1] !accent!C2 :|]|:  
[V:2] C,,[C,G,E] :|]|:  
[V:1] ^^C [I:setbarnb 17]| 
[V:2] z | 
[V:1] D/z//^^F//G^B/d/ | 
[V:2] G,,[D,G,^B,][D,G,B,] | 
[V:1] .D/z//^^F// G/^B/!accent!d | 
[V:2] G,,[D,G,^B,][D,G,B,] | 
[V:1] !accent!^^c/>^A/.^c^B/G/ | 
[V:2] ^A,2z & [E,G,][D,^^F,]!wedge![G,,G,] | 
[V:1] (3!accent!^^c/^A/^B/^cB/G/ | 
[V:2] ^A,2z & [E,G,][D,^^F,].[G,,G,] | 
[V:1] D/z//^^F//G^B/d/ | 
[V:2] [G,,,G,,][D,G,^B,][D,G,B,] | 
[V:1] D/z//^^F// G/^B/!accent!d | 
[V:2] .G,,[D,G,^B,][D,G,B,] | 
[V:1] ^^c/^A/^c^B/G/ | 
[V:2] !accent!^A,2z & [E,G,][D,^^F,]!wedge![G,,G,] | 
[V:1] g/>G/g/>G/g3//G// | 
[V:2] z3 | 
[V:1] g/>a/f3/g/ | 
[V:2] ^B,,[G,DF][G,DF] | 
[V:1] e/>g/ce | 
[V:2] C,[G,CE][G,CE] | 
[V:1] !wedge!g/z//a//f!accent!g | 
[V:2] ^B,,[G,DF][G,DF] | 
[V:1] (3e/f/g/!accent!c3/^^c/ | 
[V:2] C,!accent![G,CE]z | 
[V:1] !accent!d/!accent!e/!accent!c!accent!d | 
[V:2] z[D,^A,][D,A,] & ^^F,,3 | 
[V:1] !accent!^B/!accent!d/ !accent!G/ z/!accent!=A | 
[V:2] G,,[D,F,^B,]z | 
[V:1] !wedge!G/z//F//DG | 
[V:2] G,,[D,F,^B,][D,F,B,] | 
[V:1] C2 :|]  
[V:2] C,,[C,G,E] :|]  
[V:1] C [I:setbarnb 33]| 
[V:2] z | 
[V:1] c/d<ec/ | 
[V:2] A,,[E,C][E,C] | 
[V:1] B/G/E2 | 
[V:2] E,,[E,B,][E,B,] | 
[V:1] c/d/.ee/c/ | 
[V:2] A,,[E,C][E,C] | 
[V:1] B/G/!accent!E2- | 
[V:2] E,,[E,B,][E,B,] | 
[V:1] E/A/G2 & CB,B, | 
[V:2] [A,,E,].[E,,E,].[E,,E,] | 
[V:1] E/A/G2 & CB,B, | 
[V:2] [A,,E,].[E,,E,].[E,,E,] | 
[V:1] E/A/GG & !accent!CB,B, | 
[V:2] [A,,E,].[E,,E,].[E,,E,] | 
[V:1] E/A/[G,G]z & Czz | 
[V:2] E,!accent!C,C,, & A,,/>B,,/zz | 
[V:1] ^e/^^f<!accent!ge/ | 
[V:2] z[^E,G,C^E][E,G,CE] | 
[V:1] d/^B/!accent!G2 | 
[V:2] G,,[D,G,^B,][D,G,B,] | 
[V:1] ^e/^^f/gg/e/ | 
[V:2] C,[^E,G,C^E][E,G,CE] | 
[V:1] d/^B/!accent!G2- | 
[V:2] G,,[D,G,^B,][D,G,B,] | 
[V:1] G/c/!accent!^B2 & ^EDD | 
[V:2] [C,G,C].[G,,G,].[G,,G,] | 
[V:1] G/c/^B2 & ^ED.D | 
[V:2] [C,G,][G,,G,][G,,G,] | 
[V:1] G/c/.^B.B & !accent!^EDD | 
[V:2] [C,G,][G,,G,][G,,G,] | 
[V:1] G/c/^Bz & !accent!^EDD/C/ | 
[V:2] [C,G,][G,,G,][G,,G,] | 
[V:1] G!accent!G2 | 
[V:2] ^B,^A,B,/C/ & [G,,D,]!accent![G,,2D,2] | 
[V:1] G!accent!G2 & D/^B,<C^A,/ | 
[V:2] [G,,D,]!accent![G,,2D,2] | 
[V:1] G!accent!G2 | 
[V:2] (3^B,/C/B,/^A,B,/C/ & [G,,D,]!accent![G,,2D,2] | 
[V:1] G!accent!G2 & (3D/F/E/!accent!D2 | 
[V:2] [G,,D,]!accent![G,,2D,2] | 
[V:1] !accent!G!accent!G!accent!G | 
[V:2] (3^B,/C/B,/^A,B,/C/ & [G,,D,][G,,D,][G,,D,] | 
[V:1] !accent!GG!accent!G & D/^B,/!accent!C/B,/C/^A,/ | 
[V:2] [G,,D,][G,,D,][G,,D,] | 
[V:1] GG.[^B,/G/].[C/G/] | 
[V:2] (3^B,/C/B,/^A,z & [G,,D,][G,,D,][G,,D,] | 
[V:1] (3.[D/G/].[F/G/].[E/G/][DG]!accent!G | 
[V:2] [G,,D,][G,,D,]z | 
[V:1] g/z//a//f3/g/ | 
[V:2] ^B,,[G,DF][G,DF] | 
[V:1] e/>g/ce | 
[V:2] C,[G,CE][G,CE] | 
[V:1] g/>a/f!accent!g | 
[V:2] ^B,,[G,DF][G,DF] | 
[V:1] (3e/f/g/c3/^^c/ | 
[V:2] C,!accent![G,CE]z | 
[V:1] !wedge!d/z//e//c3/d/ | 
[V:2] ^^F,,[D,^A,C][D,A,C] | 
[V:1] ^B/>d/G!accent!=A | 
[V:2] G,,[D,F,^B,][D,F,B,] | 
[V:1] G/z//F//DG | 
[V:2] G,,[D,F,^B,][D,F,B,] | 
[V:1] C2G | 
[V:2] C,,[C,G,E]z | 
[V:1] .g/.a/.f.g | 
[V:2] ^B,,[G,DF][G,DF] | 
[V:1] .e/.g/.c.e | 
[V:2] C,[G,CE][G,CE] | 
[V:1] (3:2:4g/a/z//g//d!accent!g | 
[V:2] ^B,,[G,DF][G,DF] | 
[V:1] (3e/f/g/c3/^^c/ | 
[V:2] C,[G,CE]z | 
[V:1] .d/z//.e//.c.d | 
[V:2] ^^F,,[D,^A,C][D,A,C] | 
[V:1] .^B/z//.d//G=A | 
[V:2] G,,[D,F,^B,]z | 
[V:1] G/z//F//DG | 
[V:2] G,,[D,F,^B,][D,F,B,] | 
[V:1] !accent!!fermata!C3 |]  
[V:2] C,,[C,G,E]!fermata!z |]  


